public/assets/img/message-white.svg

<svg width="24" height="24" viewBox="0 0 24 24" fill="none" xmlns="http://www.w3.org/2000/svg">
<path fill-rule="evenodd" clip-rule="evenodd" d="M11.4961 18.7812C9.79297 20 7.56641 21.0391 6.46484 21.0391C5.42578 21.0391 5.00391 20.0781 5.56641 19.3281C5.90234 18.8906 6.44141 18.0547 6.76172 17.4688C4.33984 16.2344 2.77734 13.9219 2.77734 11.3594C2.77734 7.23438 6.87891 3.91406 11.9961 3.91406C17.1211 3.91406 21.2227 7.23438 21.2227 11.3594C21.2227 15.6094 17.0664 18.8438 11.4961 18.7812ZM8.65234 17.2969C8.33984 17.8672 7.76953 18.6094 7.41016 19.0625C7.32422 19.1719 7.37109 19.2344 7.49609 19.1875C8.17578 18.9141 9.58984 18.0078 10.5195 17.3125C10.8398 17.0547 11.0898 16.9609 11.4258 16.9688C11.5649 16.9688 11.6886 16.9713 11.7938 16.9735C11.8718 16.9751 11.9396 16.9766 11.9961 16.9766C16.1133 16.9766 19.3945 14.4531 19.3945 11.3594C19.3945 8.25781 16.1133 5.73438 11.9961 5.73438C7.88672 5.73438 4.60547 8.25781 4.60547 11.3594C4.60547 13.3594 5.96484 15.1172 8.28516 16.2188C8.78516 16.4531 8.89453 16.8438 8.65234 17.2969Z" fill="white"/>
</svg>

<svg width="24" height="24" fill="none" xmlns="http://www.w3.org/2000/svg"><path fill-rule="evenodd" clip-rule="evenodd" d="M11.496 18.781C9.793 20 7.566 21.04 6.465 21.04c-1.04 0-1.461-.96-.899-1.71.336-.438.875-1.274 1.196-1.86-2.422-1.235-3.985-3.547-3.985-6.11 0-4.125 4.102-7.445 9.22-7.445 5.124 0 9.226 3.32 9.226 7.445 0 4.25-4.157 7.485-9.727 7.422Zm-2.844-1.484c-.312.57-.882 1.312-1.242 1.765-.086.11-.039.172.086.125.68-.273 2.094-1.18 3.024-1.875.32-.257.57-.351.906-.343.139 0 .263.002.368.005l.202.003c4.117 0 7.399-2.524 7.399-5.618 0-3.101-3.282-5.625-7.399-5.625-4.11 0-7.39 2.524-7.39 5.625 0 2 1.359 3.758 3.68 4.86.5.234.609.625.366 1.078Z" fill="#000" fill-opacity=".4"/></svg>
